front/assets/images/icone-service.svg

<svg width="24" height="24" viewBox="0 0 24 24" fill="none" xmlns="http://www.w3.org/2000/svg">
    <path d="M19.2914 5.99994H20.0002C20.5525 5.99994 21.0002 6.44766 21.0002 6.99994V13.9999C21.0002 14.5522 20.5525 14.9999 20.0002 14.9999H18.0002L13.8319 9.16427C13.3345 8.46797 12.4493 8.16522 11.6297 8.41109L9.14444 9.15668C8.43971 9.3681 7.6758 9.17551 7.15553 8.65524L6.86277 8.36247C6.41655 7.91626 6.49011 7.17336 7.01517 6.82332L12.4162 3.22262C13.0752 2.78333 13.9312 2.77422 14.5994 3.1994L18.7546 5.8436C18.915 5.94571 19.1013 5.99994 19.2914 5.99994ZM5.02708 14.2947L3.41132 15.7085C2.93991 16.1209 2.95945 16.8603 3.45201 17.2474L8.59277 21.2865C9.07284 21.6637 9.77592 21.5264 10.0788 20.9963L10.7827 19.7645C11.2127 19.012 11.1091 18.0682 10.5261 17.4269L7.82397 14.4545C7.09091 13.6481 5.84722 13.5771 5.02708 14.2947ZM7.04557 5H3C2.44772 5 2 5.44772 2 6V13.5158C2 13.9242 2.12475 14.3173 2.35019 14.6464C2.3741 14.6238 2.39856 14.6015 2.42357 14.5796L4.03933 13.1658C5.47457 11.91 7.65103 12.0343 8.93388 13.4455L11.6361 16.4179C12.6563 17.5401 12.8376 19.1918 12.0851 20.5087L11.4308 21.6538C11.9937 21.8671 12.635 21.819 13.169 21.4986L17.5782 18.8531C18.0786 18.5528 18.2166 17.8896 17.8776 17.4146L12.6109 10.0361C12.4865 9.86205 12.2652 9.78636 12.0603 9.84783L9.57505 10.5934C8.34176 10.9634 7.00492 10.6264 6.09446 9.7159L5.80169 9.42313C4.68615 8.30759 4.87005 6.45035 6.18271 5.57524L7.04557 5Z" fill="#0D0C21"/>
</svg>

<svg xmlns="http://www.w3.org/2000/svg" width="24" height="24" fill="none"><path fill="#0D0C21" d="M19.291 6h.71a1 1 0 0 1 1 1v7a1 1 0 0 1-1 1h-2l-4.17-5.836a2 2 0 0 0-2.201-.753l-2.486.746a2 2 0 0 1-1.988-.502l-.293-.293a1 1 0 0 1 .152-1.539l5.401-3.6a2 2 0 0 1 2.183-.024l4.156 2.645A1 1 0 0 0 19.29 6M5.027 14.295l-1.616 1.414a1 1 0 0 0 .041 1.538l5.14 4.04a1 1 0 0 0 1.487-.29l.704-1.232a2 2 0 0 0-.257-2.338l-2.702-2.972a2 2 0 0 0-2.797-.16M7.046 5H3a1 1 0 0 0-1 1v7.516a2 2 0 0 0 .35 1.13l.074-.066 1.615-1.414a3.5 3.5 0 0 1 4.895.28l2.702 2.972a3.5 3.5 0 0 1 .45 4.09l-.655 1.146a2 2 0 0 0 1.738-.155l4.41-2.646a1 1 0 0 0 .299-1.438l-5.267-7.379a.5.5 0 0 0-.55-.188l-2.486.745a3.5 3.5 0 0 1-3.48-.877l-.293-.293a2.5 2.5 0 0 1 .38-3.848z"/></svg>
